X:3062
T: Ullas polska efter Lars Hökberg
S: Utlärd av Kalle Almlöf
O: Dalarna
Z: Karin Arén
M: 3/4
L: 1/8
K: Am
R: Polska
uE|: v(A>B) c2 v(c>d | c)B/A/ G3 v(C | D>E) (F>E) D>C | v(B,<D) (GF) E>E | 
v(A>B) c2 v(c>d | c)B/c/ d3 v(c | B>A) (G>A) B>G |1 vA2 (E2 E)>v(E :|2 vA2 E4 |:
v(e>c) (A>E) A>c | v(e<g) (f>e) (d2 | d)>u(e f>g) a>b | a>u(g e>d) v(c2
e>c) (A>E) A>c | v(e<g) (f>e) (d2 | d)>u(c B>c) d>B | vc2 u[c4E4] :|
(:musicend:)



(:music:)
